X:411
T:Enrico
T:Tune
L:1/8
M:2/2
K:D
P:A
A|"D"d2fe dcdB|ABAG F2A2|"D"d2ef "Em"gfgf|"A"e2a2 "A7"a2A2|
"D"d2fe dcdB|ABAG F2A2|"G"B2gf "A7"edec|"D"d2d2 d2:|
P:B
|:fg|"F#m"a2ag fgfe|"Bm"dedc B2B2|"Em"gagf efed|"A"cdcB "A7"A2A2|
"D"d2d2 "A"cecA|"D"d2d2 "A"cecA|"D"d2f2 "A7"edec|"D"d2d2 d2:|
T:Harmony
P:A
z2|"D"z2 [df][df] z2[d2f2]|z2 [df][df] z2[d2f2]|"D"d2d "Em"e3f|"A"a2g2 "A7"f2e2|
"D"z2 [df][df] z2[d2f2]|z2 [df][df] z2[d2f2]|"G"e2e2 "A7"a3g|"D"f2e2 d2:|
P:B
|:z2|"F#m"f2c2 f3e|"Bm"d2B2 c2z2|"Em"e2B2 e2d|"A"c2^G2 "A7"A2Bc|
"D"d2d2 "A"z4|"D"d2d2 "A"z4|"D"d2A2 "A7"A3c|"D"d2d2 d2:|%%newpage
%%textfont * 20
%%text P3 (2.0)
%%textfont * 12



